X:1
T:When a Fellow is Out of a Job
M:3/4
L:1/4
K:G
 G| B3/2 B/2 B| B A G| c2 c/2c/2| c2 c/2c/2| B/2 B3/2 B| B B3/2 G/2|\
 A3| z2 z/2 A/2| B B3/2 B/2| B/2 G2 G/2| c c3/2 c/2| c2 G/2A/2| B/2 B3/2 B|\
 A A3/2 F/2| G3-| G G G| c c3/2 c/2|c/2-d/2 z e| d d3/2 d/2| d3/4- B/4 z B|\
 A3/2 A/2 A| A B c| B B3/2 A/2| G2 G/2G/2| c3/2 c/2 c| c c3/2 G/2|\
 B B3/2 B/2| B2 G/2G/2| A/2 A3/2 A| A A3/2 F/2| G3-| G z||
